X:1
T:Soldier, Soldier, Will You Marry Me
M:4/4
L:1/8
K:F
 F2 F2 FG AG| F2 D2 C2 CD| F2 F2 A2 c2| c6 z2| d2 dd cc cA| GA GF D2 CC|\
 F2 F2 D2 CC| F6 z2|

